; generated by PrusaSlicer 2.9.1 on 2025-03-24 at 04:06:19 UTC

; 

; external perimeters extrusion width = 0.45mm
; perimeters extrusion width = 0.45mm
; infill extrusion width = 0.45mm
; solid infill extrusion width = 0.45mm
; top infill extrusion width = 0.40mm
; first layer extrusion width = 0.42mm

M73 P0 R0
M201 X2500 Y2500 Z400 E5000 ; sets maximum accelerations, mm/sec^2
M203 X180 Y180 Z12 E80 ; sets maximum feedrates, mm / sec
M204 P1250 R1250 T2500 ; sets acceleration (P, T) and retract acceleration (R), mm/sec^2
M205 X8.00 Y8.00 Z2.00 E10.00 ; sets the jerk limits, mm/sec
M205 S0 T0 ; sets the minimum extruding and travel feed rate, mm/sec

; printing object cube.stl id:0 copy 0
; stop printing object cube.stl id:0 copy 0

;TYPE:Custom
G90 ; use absolute coordinates
M83 ; extruder relative mode
M104 S170 ; set extruder temp for bed leveling
M140 S60 ; set bed temp
M109 R170 ; wait for bed leveling temp
M190 S60 ; wait for bed temp
M204 T1250 ; set travel acceleration
G28 ; home all without mesh bed level
G29 ; mesh bed leveling 
M204 T2500 ; restore travel acceleration
M104 S215 ; set extruder temp
G92 E0
G1 Y-2 X179 F2400
G1 Z3 F720
M73 P7 R0
M109 S215 ; wait for extruder temp

; intro line
G1 X170 F1000
M73 P8 R0
G1 Z0.2 F720
M73 P9 R0
G1 X110 E8 F900
G1 X40 E10 F700
M73 P16 R0
G92 E0

M221 S95 ; set flow
G21 ; set units to millimeters
G90 ; use absolute coordinates
M83 ; use relative distances for extrusion
M900 K0.2 ; Filament gcode LA 1.5
; ; Filament gcode LA 1.0
M107
;LAYER_CHANGE
;Z:0.2
;HEIGHT:0.2
G1 E-3.2 F4200
M73 P26 R0
G1 Z.4 F720
G1 X86.797 Y86.031 F9000
M73 P27 R0
G1 Z.2 F720
M73 P28 R0
G1 E3.2 F2400
M204 P800
;TYPE:Skirt/Brim
;WIDTH:0.42
G1 F900
G1 X89 Y85.303 E.07275
G1 X91 Y85.303 E.06271
G1 X92.662 Y85.698 E.05356
G1 X93.969 Y86.797 E.05354
M73 P29 R0
G1 X94.697 Y89 E.07275
G1 X94.697 Y91 E.06271
G1 X94.302 Y92.662 E.05356
G1 X93.203 Y93.969 E.05354
M73 P30 R0
G1 X91 Y94.697 E.07275
G1 X89 Y94.697 E.06271
G1 X87.338 Y94.302 E.05356
G1 X86.031 Y93.203 E.05354
G1 X85.303 Y91 E.07275
M73 P31 R0
G1 X85.303 Y89 E.06271
G1 X85.698 Y87.338 E.05356
G1 X86.759 Y86.077 E.05167
M204 P1000
G1 X87.058 Y86.35 F9000
M73 P32 R0
M204 P800
G1 F900
G1 X87.163 Y86.235 E.00488
G1 X89 Y85.68 E.06017
G1 X91 Y85.68 E.06271
G1 X92.569 Y86.074 E.05072
G1 X93.765 Y87.163 E.05072
G1 X94.32 Y89 E.06017
G1 X94.32 Y91 E.06271
M73 P33 R0
G1 X93.926 Y92.569 E.05072
G1 X92.837 Y93.765 E.05072
G1 X91 Y94.32 E.06017
G1 X89 Y94.32 E.06271
G1 X87.431 Y93.926 E.05072
M73 P34 R0
G1 X86.235 Y92.837 E.05072
G1 X85.68 Y91 E.06017
G1 X85.68 Y89 E.06271
G1 X86.074 Y87.431 E.05072
M73 P35 R0
G1 X87.018 Y86.394 E.04397
M204 P1000
G1 X87.302 Y86.677 F9000
M204 P800
G1 F900
G1 X87.525 Y86.454 E.00989
G1 X89 Y86.057 E.04789
G1 X91 Y86.057 E.06271
G1 X92.47 Y86.451 E.04772
G1 X93.546 Y87.525 E.04767
M73 P36 R0
G1 X93.943 Y89 E.04789
G1 X93.943 Y91 E.06271
G1 X93.549 Y92.47 E.04772
G1 X92.475 Y93.546 E.04767
G1 X91 Y93.943 E.04789
G1 X89 Y93.943 E.06271
M73 P37 R0
G1 X87.53 Y93.549 E.04772
G1 X86.454 Y92.475 E.04767
G1 X86.057 Y91 E.04789
G1 X86.057 Y89 E.06271
G1 X86.451 Y87.53 E.04772
M73 P38 R0
G1 X87.259 Y86.72 E.03587
M204 P1000
G1 X87.522 Y87.013 F9000
M204 P800
G1 F900
G1 X87.883 Y86.69 E.01519
G1 X89 Y86.434 E.03593
G1 X91 Y86.434 E.06271
G1 X92.363 Y86.827 E.04448
G1 X93.31 Y87.883 E.04447
M73 P39 R0
G1 X93.566 Y89 E.03593
G1 X93.566 Y91 E.06271
G1 X93.173 Y92.363 E.04448
G1 X92.117 Y93.31 E.04447
G1 X91 Y93.566 E.03593
G1 X89 Y93.566 E.06271
M73 P40 R0
G1 X87.637 Y93.173 E.04448
G1 X86.69 Y92.117 E.04447
G1 X86.434 Y91 E.03593
G1 X86.434 Y89 E.06271
G1 X86.827 Y87.637 E.04448
G1 X87.478 Y87.053 E.02742
M73 P41 R0
M204 P1000
G1 X87.712 Y87.356 F9000
M204 P800
G1 F900
G1 X88.235 Y86.949 E.02078
G1 X89 Y86.811 E.02437
G1 X91 Y86.811 E.06271
G1 X92.248 Y87.202 E.04101
G1 X93.051 Y88.235 E.04102
G1 X93.189 Y89 E.02437
G1 X93.189 Y91 E.06271
M73 P42 R0
G1 X92.798 Y92.248 E.04101
G1 X91.765 Y93.051 E.04102
G1 X91 Y93.189 E.02437
G1 X89 Y93.189 E.06271
G1 X87.752 Y92.798 E.04101
G1 X86.949 Y91.765 E.04102
M73 P43 R0
G1 X86.811 Y91 E.02437
G1 X86.811 Y89 E.06271
G1 X87.202 Y87.752 E.04101
G1 X87.665 Y87.392 E.01839
M204 P1000
G1 E-2.24 F4200
;WIPE_START
G1 F7200
G1 X87.712 Y87.356 E-.03281
G1 X88.235 Y86.949 E-.36725
G1 X89 Y86.811 E-.43078
G1 X89.233 Y86.811 E-.12916
;WIPE_END
G1 Z.4 F720
; printing object cube.stl id:0 copy 0
G1 X89.587 Y89.587 F9000
M73 P44 R0
G1 Z.2 F720
G1 E3.2 F2400
M204 P800
;TYPE:Perimeter
;WIDTH:0.419999
G1 F900
G1 X90.413 Y89.587 E.0259
G1 X90.413 Y90 E.01295
G1 X90.413 Y90.413 E.01295
G1 X89.587 Y90.413 E.0259
G1 X89.587 Y89.647 E.02402
M204 P1000
G1 X89.21 Y89.21 F9000
M204 P800
;TYPE:External perimeter
G1 F900
G1 X90.79 Y89.21 E.04954
G1 X90.79 Y90 E.02477
M73 P45 R0
G1 X90.79 Y90.79 E.02477
G1 X89.21 Y90.79 E.04954
G1 X89.21 Y89.27 E.04766
M204 P1000
M106 S84.15
;LAYER_CHANGE
;Z:0.4
;HEIGHT:0.2
;BEFORE_LAYER_CHANGE
G92 E0.0
;0.4


G1 E-2.24 F4200
;WIPE_START
G1 F7200
G1 X89.21 Y89.21 E-.03325
G1 X90.79 Y89.21 E-.87558
G1 X90.79 Y89.302 E-.05117
;WIPE_END
G1 Z.4 F720
;AFTER_LAYER_CHANGE
;0.4
; stop printing object cube.stl id:0 copy 0
G1 Z.6
G1 X88.008 Y85.631 F9000
G1 Z.4 F720
M73 P46 R0
G1 E3.2 F2400
;TYPE:Skirt/Brim
;WIDTH:0.42
G1 F900
G1 X89 Y85.303 E.03276
G1 X91 Y85.303 E.06271
G1 X92.662 Y85.698 E.05356
G1 X93.969 Y86.797 E.05354
G1 X94.697 Y89 E.07275
M73 P47 R0
G1 X94.697 Y91 E.06271
G1 X94.302 Y92.662 E.05356
G1 X93.203 Y93.969 E.05354
G1 X91 Y94.697 E.07275
G1 X89 Y94.697 E.06271
M73 P48 R0
G1 X87.338 Y94.302 E.05356
G1 X86.031 Y93.203 E.05354
G1 X85.303 Y91 E.07275
G1 X85.303 Y89 E.06271
M73 P49 R0
G1 X85.698 Y87.338 E.05356
G1 X86.797 Y86.031 E.05354
G1 X87.951 Y85.65 E.0381
G1 X88.047 Y85.968 F9000
G1 F900
G1 X89 Y85.68 E.03122
G1 X91 Y85.68 E.06271
G1 X92.569 Y86.074 E.05072
M73 P50 R0
G1 X93.765 Y87.163 E.05072
G1 X94.32 Y89 E.06017
G1 X94.32 Y91 E.06271
G1 X93.926 Y92.569 E.05072
M73 P51 R0
G1 X92.837 Y93.765 E.05072
G1 X91 Y94.32 E.06017
G1 X89 Y94.32 E.06271
G1 X87.431 Y93.926 E.05072
G1 X86.235 Y92.837 E.05072
M73 P52 R0
G1 X85.68 Y91 E.06017
G1 X85.68 Y89 E.06271
G1 X86.074 Y87.431 E.05072
G1 X87.163 Y86.235 E.05072
G1 X87.989 Y85.985 E.02706
M73 P53 R0
G1 X88.075 Y86.306 F9000
G1 F900
G1 X89 Y86.057 E.03004
G1 X91 Y86.057 E.06271
G1 X92.47 Y86.451 E.04772
G1 X93.546 Y87.525 E.04767
G1 X93.943 Y89 E.04789
G1 X93.943 Y91 E.06271
M73 P54 R0
G1 X93.549 Y92.47 E.04772
G1 X92.475 Y93.546 E.04767
G1 X91 Y93.943 E.04789
G1 X89 Y93.943 E.06271
G1 X87.53 Y93.549 E.04772
M73 P55 R0
G1 X86.454 Y92.475 E.04767
G1 X86.057 Y91 E.04789
G1 X86.057 Y89 E.06271
G1 X86.451 Y87.53 E.04772
G1 X87.525 Y86.454 E.04767
G1 X88.017 Y86.321 E.01598
M73 P56 R0
G1 X88.091 Y86.643 F9000
G1 F900
G1 X89 Y86.434 E.02924
G1 X91 Y86.434 E.06271
G1 X92.363 Y86.827 E.04448
G1 X93.31 Y87.883 E.04447
G1 X93.566 Y89 E.03593
G1 X93.566 Y91 E.06271
M73 P57 R0
G1 X93.173 Y92.363 E.04448
G1 X92.117 Y93.31 E.04447
G1 X91 Y93.566 E.03593
G1 X89 Y93.566 E.06271
G1 X87.637 Y93.173 E.04448
G1 X86.69 Y92.117 E.04447
M73 P58 R0
G1 X86.434 Y91 E.03593
G1 X86.434 Y89 E.06271
G1 X86.827 Y87.637 E.04448
G1 X87.883 Y86.69 E.04447
G1 X88.032 Y86.656 E.00479
G1 X88.235 Y86.949 F9000
G1 F900
M73 P59 R0
G1 X89 Y86.811 E.02437
G1 X91 Y86.811 E.06271
G1 X92.248 Y87.202 E.04101
G1 X93.051 Y88.235 E.04102
G1 X93.189 Y89 E.02437
G1 X93.189 Y91 E.06271
G1 X92.798 Y92.248 E.04101
G1 X91.765 Y93.051 E.04102
M73 P60 R0
G1 X91 Y93.189 E.02437
G1 X89 Y93.189 E.06271
G1 X87.752 Y92.798 E.04101
G1 X86.949 Y91.765 E.04102
G1 X86.811 Y91 E.02437
G1 X86.811 Y89 E.06271
G1 X87.202 Y87.752 E.04101
M73 P61 R0
G1 X88.188 Y86.986 E.03915
G1 E-2.24 F4200
;WIPE_START
G1 F7200
G1 X88.235 Y86.949 E-.03315
G1 X89 Y86.811 E-.43078
G1 X89.895 Y86.811 E-.49607
;WIPE_END
G1 Z.6 F720
; printing object cube.stl id:0 copy 0
G1 X89.714 Y89.714 F9000
G1 Z.4 F720
G1 E3.2 F2400
M204 P800
;TYPE:Perimeter
;WIDTH:0.614381
G1 F900
M73 P62 R0
G1 X90.286 Y89.714 E.02718
G1 X90.286 Y90 E.01359
G1 X90.286 Y90.286 E.01359
G1 X89.714 Y90.286 E.02718
G1 X89.714 Y89.774 E.02433
M204 P1000
G1 X89.225 Y89.225 F9000
M204 P800
;TYPE:External perimeter
;WIDTH:0.449999
G1 F900
G1 X90.775 Y89.225 E.05247
G1 X90.775 Y90 E.02623
G1 X90.775 Y90.775 E.02623
G1 X89.225 Y90.775 E.05247
G1 X89.225 Y89.285 E.05043
M73 P63 R0
M204 P1000
M106 S170.85
;LAYER_CHANGE
;Z:0.6
;HEIGHT:0.2
;BEFORE_LAYER_CHANGE
G92 E0.0
;0.6


G1 E-2.24 F4200
;WIPE_START
G1 F7200
G1 X89.225 Y89.225 E-.03325
G1 X90.775 Y89.225 E-.85896
G1 X90.775 Y89.347 E-.06779
;WIPE_END
G1 Z.6 F720
;AFTER_LAYER_CHANGE
;0.6
; stop printing object cube.stl id:0 copy 0
G1 Z.8
G1 X88.017 Y85.628 F9000
G1 Z.6 F720
G1 E3.2 F2400
;TYPE:Skirt/Brim
;WIDTH:0.42
G1 F900
G1 X89 Y85.303 E.03246
G1 X91 Y85.303 E.06271
M73 P64 R0
G1 X92.662 Y85.698 E.05356
G1 X93.969 Y86.797 E.05354
G1 X94.697 Y89 E.07275
G1 X94.697 Y91 E.06271
G1 X94.302 Y92.662 E.05356
M73 P65 R0
G1 X93.203 Y93.969 E.05354
G1 X91 Y94.697 E.07275
G1 X89 Y94.697 E.06271
G1 X87.338 Y94.302 E.05356
M73 P66 R0
G1 X86.031 Y93.203 E.05354
G1 X85.303 Y91 E.07275
G1 X85.303 Y89 E.06271
G1 X85.698 Y87.338 E.05356
G1 X86.797 Y86.031 E.05354
M73 P67 R0
G1 X87.96 Y85.647 E.0384
G1 X88.056 Y85.965 F9000
G1 F900
G1 X89 Y85.68 E.03092
G1 X91 Y85.68 E.06271
G1 X92.569 Y86.074 E.05072
G1 X93.765 Y87.163 E.05072
M73 P68 R0
G1 X94.32 Y89 E.06017
G1 X94.32 Y91 E.06271
G1 X93.926 Y92.569 E.05072
G1 X92.837 Y93.765 E.05072
G1 X91 Y94.32 E.06017
M73 P69 R0
G1 X89 Y94.32 E.06271
G1 X87.431 Y93.926 E.05072
G1 X86.235 Y92.837 E.05072
G1 X85.68 Y91 E.06017
G1 X85.68 Y89 E.06271
M73 P70 R0
G1 X86.074 Y87.431 E.05072
G1 X87.163 Y86.235 E.05072
G1 X87.998 Y85.983 E.02735
G1 X88.084 Y86.303 F9000
G1 F900
G1 X89 Y86.057 E.02974
G1 X91 Y86.057 E.06271
G1 X92.47 Y86.451 E.04772
M73 P71 R0
G1 X93.546 Y87.525 E.04767
G1 X93.943 Y89 E.04789
G1 X93.943 Y91 E.06271
G1 X93.549 Y92.47 E.04772
G1 X92.475 Y93.546 E.04767
M73 P72 R0
G1 X91 Y93.943 E.04789
G1 X89 Y93.943 E.06271
G1 X87.53 Y93.549 E.04772
G1 X86.454 Y92.475 E.04767
G1 X86.057 Y91 E.04789
M73 P73 R0
G1 X86.057 Y89 E.06271
G1 X86.451 Y87.53 E.04772
G1 X87.525 Y86.454 E.04767
G1 X88.027 Y86.319 E.0163
G1 X88.1 Y86.64 F9000
G1 F900
G1 X89 Y86.434 E.02895
G1 X91 Y86.434 E.06271
G1 X92.363 Y86.827 E.04448
M73 P74 R0
G1 X93.31 Y87.883 E.04447
G1 X93.566 Y89 E.03593
G1 X93.566 Y91 E.06271
G1 X93.173 Y92.363 E.04448
G1 X92.117 Y93.31 E.04447
M73 P75 R0
G1 X91 Y93.566 E.03593
G1 X89 Y93.566 E.06271
G1 X87.637 Y93.173 E.04448
G1 X86.69 Y92.117 E.04447
G1 X86.434 Y91 E.03593
G1 X86.434 Y89 E.06271
M73 P76 R0
G1 X86.827 Y87.637 E.04448
G1 X87.883 Y86.69 E.04447
G1 X88.042 Y86.654 E.00511
G1 X88.235 Y86.949 F9000
G1 F900
G1 X89 Y86.811 E.02437
G1 X91 Y86.811 E.06271
G1 X92.248 Y87.202 E.04101
G1 X93.051 Y88.235 E.04102
M73 P77 R0
G1 X93.189 Y89 E.02437
G1 X93.189 Y91 E.06271
G1 X92.798 Y92.248 E.04101
G1 X91.765 Y93.051 E.04102
G1 X91 Y93.189 E.02437
G1 X89 Y93.189 E.06271
G1 X87.752 Y92.798 E.04101
M73 P78 R0
G1 X86.949 Y91.765 E.04102
G1 X86.811 Y91 E.02437
G1 X86.811 Y89 E.06271
G1 X87.202 Y87.752 E.04101
G1 X88.188 Y86.986 E.03915
G1 E-2.24 F4200
M73 P79 R0
;WIPE_START
G1 F7200
G1 X88.235 Y86.949 E-.03315
G1 X89 Y86.811 E-.43078
G1 X89.895 Y86.811 E-.49607
;WIPE_END
G1 Z.8 F720
; printing object cube.stl id:0 copy 0
G1 X89.714 Y89.714 F9000
G1 Z.6 F720
G1 E3.2 F2400
M204 P800
;TYPE:Perimeter
;WIDTH:0.614381
G1 F900
G1 X90.286 Y89.714 E.02718
G1 X90.286 Y90 E.01359
G1 X90.286 Y90.286 E.01359
G1 X89.714 Y90.286 E.02718
G1 X89.714 Y89.774 E.02433
M204 P1000
G1 X89.225 Y89.225 F9000
M73 P80 R0
M204 P800
;TYPE:External perimeter
;WIDTH:0.449999
G1 F900
G1 X90.775 Y89.225 E.05247
G1 X90.775 Y90 E.02623
G1 X90.775 Y90.775 E.02623
G1 X89.225 Y90.775 E.05247
G1 X89.225 Y89.285 E.05043
M204 P1000
M106 S255
;LAYER_CHANGE
;Z:0.8
;HEIGHT:0.2
;BEFORE_LAYER_CHANGE
G92 E0.0
;0.8


G1 E-2.24 F4200
;WIPE_START
G1 F7200
G1 X89.225 Y89.225 E-.03325
G1 X90.775 Y89.225 E-.85896
G1 X90.775 Y89.347 E-.06779
M73 P81 R0
;WIPE_END
G1 Z.8 F720
;AFTER_LAYER_CHANGE
;0.8
G1 Z.8
G1 X89.714 Y89.714 F9000
G1 E3.2 F2400
M204 P800
;TYPE:Perimeter
;WIDTH:0.614381
G1 F900
G1 X90.286 Y89.714 E.02718
G1 X90.286 Y90 E.01359
G1 X90.286 Y90.286 E.01359
G1 X89.714 Y90.286 E.02718
G1 X89.714 Y89.774 E.02433
M204 P1000
G1 X89.225 Y89.225 F9000
M204 P800
;TYPE:External perimeter
;WIDTH:0.449999
G1 F900
G1 X90.775 Y89.225 E.05247
G1 X90.775 Y90 E.02623
G1 X90.775 Y90.775 E.02623
G1 X89.225 Y90.775 E.05247
M73 P82 R0
G1 X89.225 Y89.285 E.05043
M204 P1000
;LAYER_CHANGE
;Z:1
;HEIGHT:0.2
;BEFORE_LAYER_CHANGE
G92 E0.0
;1


G1 E-2.24 F4200
;WIPE_START
G1 F7200
G1 X89.225 Y89.225 E-.03325
G1 X90.775 Y89.225 E-.85896
G1 X90.775 Y89.347 E-.06779
;WIPE_END
G1 Z1 F720
;AFTER_LAYER_CHANGE
;1
G1 Z1
G1 X89.714 Y89.714 F9000
G1 E3.2 F2400
M204 P800
;TYPE:Perimeter
;WIDTH:0.614381
G1 F900
G1 X90.286 Y89.714 E.02718
G1 X90.286 Y90 E.01359
M73 P83 R0
G1 X90.286 Y90.286 E.01359
G1 X89.714 Y90.286 E.02718
G1 X89.714 Y89.774 E.02433
M204 P1000
G1 X89.225 Y89.225 F9000
M204 P800
;TYPE:External perimeter
;WIDTH:0.449999
G1 F900
G1 X90.775 Y89.225 E.05247
G1 X90.775 Y90 E.02623
G1 X90.775 Y90.775 E.02623
G1 X89.225 Y90.775 E.05247
G1 X89.225 Y89.285 E.05043
M204 P1000
;LAYER_CHANGE
;Z:1.2
;HEIGHT:0.2
;BEFORE_LAYER_CHANGE
G92 E0.0
;1.2


G1 E-2.24 F4200
M73 P84 R0
;WIPE_START
G1 F7200
G1 X89.225 Y89.225 E-.03325
G1 X90.775 Y89.225 E-.85896
G1 X90.775 Y89.347 E-.06779
;WIPE_END
G1 Z1.2 F720
;AFTER_LAYER_CHANGE
;1.2
G1 Z1.2
G1 X89.714 Y89.714 F9000
G1 E3.2 F2400
M204 P800
;TYPE:Perimeter
;WIDTH:0.614381
G1 F900
G1 X90.286 Y89.714 E.02718
G1 X90.286 Y90 E.01359
G1 X90.286 Y90.286 E.01359
G1 X89.714 Y90.286 E.02718
G1 X89.714 Y89.774 E.02433
M204 P1000
G1 X89.225 Y89.225 F9000
M204 P800
;TYPE:External perimeter
;WIDTH:0.449999
G1 F900
G1 X90.775 Y89.225 E.05247
G1 X90.775 Y90 E.02623
M73 P85 R0
G1 X90.775 Y90.775 E.02623
G1 X89.225 Y90.775 E.05247
G1 X89.225 Y89.285 E.05043
M204 P1000
;LAYER_CHANGE
;Z:1.4
;HEIGHT:0.2
;BEFORE_LAYER_CHANGE
G92 E0.0
;1.4


G1 E-2.24 F4200
;WIPE_START
G1 F7200
G1 X89.225 Y89.225 E-.03325
G1 X90.775 Y89.225 E-.85896
G1 X90.775 Y89.347 E-.06779
;WIPE_END
G1 Z1.4 F720
;AFTER_LAYER_CHANGE
;1.4
G1 Z1.4
M73 P86 R0
G1 X89.714 Y89.714 F9000
G1 E3.2 F2400
M204 P800
;TYPE:Perimeter
;WIDTH:0.614381
G1 F900
G1 X90.286 Y89.714 E.02718
G1 X90.286 Y90 E.01359
G1 X90.286 Y90.286 E.01359
G1 X89.714 Y90.286 E.02718
G1 X89.714 Y89.774 E.02433
M204 P1000
G1 X89.225 Y89.225 F9000
M204 P800
;TYPE:External perimeter
;WIDTH:0.449999
G1 F900
G1 X90.775 Y89.225 E.05247
G1 X90.775 Y90 E.02623
G1 X90.775 Y90.775 E.02623
G1 X89.225 Y90.775 E.05247
G1 X89.225 Y89.285 E.05043
M73 P87 R0
M204 P1000
;LAYER_CHANGE
;Z:1.6
;HEIGHT:0.2
;BEFORE_LAYER_CHANGE
G92 E0.0
;1.6


G1 E-2.24 F4200
;WIPE_START
G1 F7200
G1 X89.225 Y89.225 E-.03325
G1 X90.775 Y89.225 E-.85896
G1 X90.775 Y89.347 E-.06779
;WIPE_END
G1 Z1.6 F720
;AFTER_LAYER_CHANGE
;1.6
G1 Z1.6
G1 X89.714 Y89.714 F9000
G1 E3.2 F2400
M204 P800
;TYPE:Perimeter
;WIDTH:0.614381
G1 F900
G1 X90.286 Y89.714 E.02718
G1 X90.286 Y90 E.01359
G1 X90.286 Y90.286 E.01359
G1 X89.714 Y90.286 E.02718
M73 P88 R0
G1 X89.714 Y89.774 E.02433
M204 P1000
G1 X89.225 Y89.225 F9000
M204 P800
;TYPE:External perimeter
;WIDTH:0.449999
G1 F900
G1 X90.775 Y89.225 E.05247
G1 X90.775 Y90 E.02623
G1 X90.775 Y90.775 E.02623
G1 X89.225 Y90.775 E.05247
G1 X89.225 Y89.285 E.05043
M204 P1000
;LAYER_CHANGE
;Z:1.8
;HEIGHT:0.2
;BEFORE_LAYER_CHANGE
G92 E0.0
;1.8


G1 E-2.24 F4200
;WIPE_START
G1 F7200
M73 P89 R0
G1 X89.225 Y89.225 E-.03325
G1 X90.775 Y89.225 E-.85896
G1 X90.775 Y89.347 E-.06779
;WIPE_END
G1 Z1.8 F720
;AFTER_LAYER_CHANGE
;1.8
G1 Z1.8
G1 X89.714 Y89.714 F9000
G1 E3.2 F2400
M204 P800
;TYPE:Perimeter
;WIDTH:0.614381
G1 F900
G1 X90.286 Y89.714 E.02718
G1 X90.286 Y90 E.01359
G1 X90.286 Y90.286 E.01359
G1 X89.714 Y90.286 E.02718
G1 X89.714 Y89.774 E.02433
M204 P1000
G1 X89.225 Y89.225 F9000
M204 P800
;TYPE:External perimeter
;WIDTH:0.449999
G1 F900
G1 X90.775 Y89.225 E.05247
G1 X90.775 Y90 E.02623
M73 P90 R0
